X:1
T:Mazie
T: Mazie
T:Words and Music by Lew Gold Eli Dawson Sidney Caine 
T:Public Domain - https://archive.org/details/01MAZIE/page/n3/mode/2up
T:Public Domain - https://archive.org/details/01MAZIE/page/n3/mode/2up
T:Public Domain - https://archive.org/details/01MAZIE/page/n3/mode/2up
C:Words and Music by Sidney Caine, Eli Dawson and Lew Gold
Z:Public Domain - https://archive.org/details/01MAZIE/page/n3/mode/2up
%%score 1 2 { ( 3 4 ) | ( 5 6 ) }
L:1/8
Q:1/4=136
M:4/4
K:G
V:1 treble nm="Alto"
V:2 treble nm="Women"
V:3 treble nm="Piano"
V:4 treble 
V:5 bass 
V:6 bass 
V:1
"^Moderato" z8 | z8 | z8 | z8 | z8 | z8 | z8 | z4 z2 ||"^VOICE" D2 | E8 | F6 F G | A2 G2 A2 B2 | %12
w: ||||||||Come|o\-|ver, till I|whis\- per in your|
w: ||||||||I'm|hap\-|py that you|list\- ened to my|
 d8 | B8 | A8 | B2 E2 F2 G2 | A8 | A8 | B6 B c | B2 E2 A2 B2 | c8 | ^c2 A2 B2 c2 | B6 A2 | B4 ^c4 | %24
w: ear|I'm|scared|some\- one else may|gear|I|have man- y|things I'd like to|say.|Just since I met|you I|feel this|
w: plea|You|sure|made a hit with|me|My|folks nev\- er|thought I'd love a|girl.|It took you to|set my|heart a\-|
 d8 |:[M:4/4]"^CHORUS" d4 B4- | B2 z2 z4 | ^d4 B4- | B2 z2 z4 | e4 B4- | B2 d2 c2 B2 | E8- | %32
w: way.|Maz\- ie,|_|Maz\- ie|_|I'd like|_ to be your|beau|
w: whirl.||||||||
 E2 z2 z4 | F4 d4 | B4 A4 | G2 A2 B4 | z8 | ^C4 B4 | A4 G4 | F2 G2 A4 | A2 B2 c4 | d4 B4- | %42
w: _|I could|kiss and|love you so||Tease and|hug till|You said "Oh!|Please let go"|Maz\- ie|
w: ||||||||||
 B2 z2 z4 | ^d4 B4- | B2 z2 z4 | e8 | d4 B4 | A8- | A2 z2 z4 | E4 c4 | B4 A4 | !>!d2 z2 B2 A2 | %52
w: _|Maz\- ie|_|My|Love di\-|vine|_|I've met|girls, but|you are so|
w: ||||||||||
 G2 A2 B4 | E8 | F8 |1 G8- | G4 z4 :|2 G8- | G4 z4!D.C.! |] %59
w: diff'\- rent dear,|Maz|ie|mine!|_|mine!|_|
w: |||||||
V:2
 z8 | z8 | z8 | z8 | z8 | z8 | z8 | z4 z2 || z2 | z8 | z8 | z8 | z8 | z8 | z8 | z8 | z8 | z8 | z8 | %19
 z8 | z8 | z8 | z8 | z8 | z8 |:[M:4/4] d4 B4- | B2 z2 z4 | ^d4 B4- | B2 z2 z4 | e4 B4- | %30
 B2 d2 c2 B2 | E8- | E2 z2 z4 | F4 d4 | B4 A4 | G2 A2 B4 | z8 | ^C4 B4 | A4 G4 | F2 G2 A4 | %40
 A2 B2 c4 | d4 B4- | B2 z2 z4 | ^d4 B4- | B2 z2 z4 | e8 | d4 B4 | A8- | A2 z2 z4 | E4 c4 | B4 A4 | %51
 !>!d2 z2 B2 A2 | G2 A2 B4 | E8 | F8 |1 G8- | G4 z4 :|2 G8- | G4 z4 |] %59
V:3
!f! E4 c4 | B4 A4 | !>![DGd]2 z2 !tenuto![DB]2 !tenuto![^DA]2 | %3
 !tenuto![B,EG]2 !tenuto![^DA]2 !tenuto!B4 | !>!E8 | !>![F,F]8 | G2 e>d e>de>d | %7
 g2 z2!8va(! [gbd'g']2!8va)! ||!p! D2 | E8 | [F,F]6 FG | [DA]2 [B,G]2 [DA]2 [GB]2 | [Bd]8 | B8 | %14
 A8 | [^CGB]2 [CE]2 [CF]2 [CG]2 | A8 | A8 | [B,B]6 Bc | [DB]2 [DE]2 [CA]2 [DB]2 | [Cc]8 | %21
 [G^c]2 [^CA]2 [GB]2 [Ac]2 | [B,B]6 A2 | [B,B]4 [C^c]4 | d8 |:[M:4/4] !>![Dd]4 !>![B,B-]4 | %26
 B2 [GBdg]2 [FBdf]2 [EGBe]2 | [^D^d]4 [B,B]4- | [B,B]2 [^DAB]2 [DAc]2 [DAB]2 | [Ee]4 B4- | %30
 B2 !tenuto![=F^Gd]2 !tenuto![EGc]2 !tenuto![DGB]2 | E8- | E z (A,>B, C>DE>^E) | [F,F]4 [Dd]4 | %34
 B4 A4 | !tenuto![B,EG]2 !tenuto![B,^DA]2 !tenuto![B,EB]4 | !>![Bg]2 !>![B^da]2 !>![Beb]4 | %37
 ^C4 [B,B]4 | A4 G4 | !tenuto![F,=CF]2 !tenuto![G,CG]2 !tenuto![A,CA]4 | %40
 !tenuto![CFA]2 !tenuto![DFB]2 !tenuto![EFc]4 | [Dd]4 [B,B-]4 | [B,B]2 [GBdg]2 [FBdf]2 [EGBe]2 | %43
 [^D^d]4 [B,B]4- | [B,B]2 B2 c2 B2 | [Ee]8 | [Dd]4 [B,B]4 | [A,A]8- | [A,A]2 z2 z4 | E4 c4 | %50
 B4 A4 | !>![DGd]2 z2 [DB]2 [^DA]2 | [B,EG]2 [^DA]2 B4 | E8 | F8 |1 [B,DG]2 D2 [^CE]2 [=CF]2 | %56
 [DG]2 [CDA]2 [DB]2 [DFc]2 :|2 G2 e>d e>de>d | g2 z2!8va(! !>![gbd'g']2!8va)! z2 |] %59
V:4
 z2 [A,C]2 z2 [CA]2 | z2 [DF]2 [CD]4 | x8 | x4 E2 G2 | z2 [G,^C][G,C] [G,C]2 [G,C]2 | %5
 z2 [=CD][CD] [CD]2 [CD]2 | [B,D]2 [GB]2 [G^A]2 [F=A]2 | [Gd]2 x2!8va(! x2!8va)! || x2 | %9
 z2 [G,B,][G,B,] [G,B,]2 [G,B,]2 | z2 [CD][CD] [CD]2 [CD]2 | x8 | G2 F2 E2 D2 | %13
 z2 [CD][CD] [CD]2 [CD]2 | z2 [CF][CF] [CF]2 [CF]2 | x8 | =C2 [CF]2 [CE]2 [CD]2 | %17
 [B,=F]2 [B,F][B,F] [B,F]2 [B,F]2 | z2 [D^G][DG] [DG]2 [DG]2 | x8 | z2 [EA][EA] [EA]2 [EA]2 | x8 | %22
 z2 [DF][DF] [DF]2 [A,D]2 | z2 [D^G]2 z2 [=GA]2 | [DF=c]2 dd d2 d2 |:[M:4/4] z2 [GB]2 z2 [DG][DG] | %26
 [B,DG]2 x6 | z2 [AB]2 z2 [^DA][DA] | [DA]2 x6 | z2 [^GB]2 D>(EF>=G | ^G2) x6 | %31
 z2 [A,C]2 (([^G,D]4 | [A,C])) z x6 | z2 [CD]2 z2 [Fc]2 | z2 [CD]2 z2 [CF]2 | x8 | x8 | %37
 z2 [G,A,]2 z2 [^CG]2 | z2 [A,^C]2 z2 [G,C]2 | x8 | x8 | z2 [GB]2 z2 [DG][DG] | [DG]2 x6 | %43
 z2 [AB]2 z2 [^DA][DA] | [^DA]2 [DA]2 [DA]2 [DA]2 | z2 [^GB][GB] [GB]2 [GB]2 | z2 [^GB]2 z2 [DG]2 | %47
 z2 [CE][CE] [CE]2 [CE][CE] | [CE]2 B,2 C2 D2 | x8 | x8 | x8 | x8 | x8 | %54
 z2 [=CD][CD] [CD]2 [CD]2 |1 x8 | x8 :|2 [B,D]2 [GB]2 [G^A]2 [F=A]2 | [Gd]2 x2!8va(! x2!8va)! x2 |] %59
V:5
 A,,4 (E,2 _E,2 | [D,,D,]4) [F,,F,]4 | !>!B,2 z2 !tenuto!G,2 !tenuto!F,2 | %3
 !tenuto!E,2 !tenuto!F,2 !tenuto!G,2 E,2 | A,,4 E,,4 | [D,,D,]4 A,,4 | [G,,G,]2 D2 ^C2 =C2 | %7
 B,2 z2 !arpeggio![G,,D,B,]2 || z2 | G,,2 z2 D,,2 z2 | A,,2 z2 D,,2 D,2 | G,,2 D,2 D,,2 D,2 | %12
 [G,,G,]2 z2 [D,,D,]2 z2 | [F,,F,]2 z2 [D,,D,]2 z2 | [^D,,^D,]8 | [E,,E,]2 z2 [A,,,A,,]2 z2 | %16
 z2 (A,2 G,2 F,2) | [G,,G,]2 z2 [D,,D,]2 z2 | [E,,E,]2 z2 [B,,,B,,]2 z2 | %19
 [^G,,^G,]4 (([F,,F,]2 [=F,,=F,]2 | [E,,E,]2)) z2 A,,2 z2 | [E,,E,]2 z2 [A,,,C,]2 [C,E,]2 | %22
 [D,,D,]2 z2 [A,,,A,,]2 F,2 | [E,,E,]4 A,,4 | [D,,D,]2 z2 z4 |:[M:4/4] [G,,G,]2 z2 [D,,D,]2 z2 | %26
 [G,,G,]2 z2 [D,,D,]2 z2 | [B,,B,]4 [F,,F,]4 | [B,,,B,,]2 z2 [F,,F,]2 z2 | %29
 [^G,,^G,]4 [E,,E,]>^G,A,>^A, | B,2 B,2 E,2 F,,2 | [A,,,A,,]4 [B,,,B,,]4 | [C,,C,] z z2 z4 | %33
 [D,,D,]4 [A,,,A,,]4 | (([D,,D,]4 [^D,,^D,]4 | %35
 !tenuto![E,,E,]2)) !tenuto![F,,F,]2 !tenuto![G,,G,]4 | !>!E2 !>!F2 !>!G4 | A,,4 E,,4 | ^C,4 A,,4 | %39
 !tenuto![D,,D,]2 !tenuto![E,,E,]2 !tenuto![F,,F,]4 | [D,,D,]8 | [G,,G,]2 z2 [D,,D,]2 z2 | %42
 [G,,G,]2 z2 [D,,D,]2 z2 | [B,,B,]4 [F,,F,]4 | [B,,,B,,]2 z2 [F,,F,]2 z2 | [^G,,^G,]4 [B,,,B,,]4 | %46
 [E,,E,]4 [E,,E,]4 | [A,,,A,,]2 E,2 F,2 ^G,2 | !-(!A,2 z2 z4 | A,,4 ([E,,E,]2 [_E,,_E,]2 | %50
 [D,,D,]4) [F,,F,]4 | !>!B,2 z2 G,2 F,2 | E,2 F,2 G,2 E,2 | A,,4 E,,4 | [D,,D,]4 A,,4 |1 %55
 [G,,G,]2 B,2 _B,2 A,2 | =B,2 F,2 G,2 A,2 :|2 [G,,G,]2 (D2 ^C2 =C2 | %58
 B,2) z2 !arpeggio![G,,D,B,]2 z2 |] %59
V:6
 x8 | x8 | x8 | x8 | x8 | x8 | x8 | x6 || x2 | x8 | x8 | x8 | x8 | x8 | x8 | x8 | [D,,D,]8 | x8 | %18
 x8 | x8 | x8 | x8 | x8 | x8 | x8 |:[M:4/4] x8 | x8 | x8 | x8 | x8 | x8 | x8 | x8 | x8 | x8 | x8 | %36
 x8 | x8 | x8 | x8 | x8 | x8 | x8 | x8 | x8 | x8 | x8 | x8 | x8 | x8 | x8 | x8 | x8 | x8 | x8 |1 %55
 x8 | x8 :|2 x8 | x8 |] %59

